docs/img/svg/trash.svg

<svg xmlns="http://www.w3.org/2000/svg" preserveAspectRatio="xMidYMid" width="17" height="17" viewBox="0 0 17 17"><defs><style>.cls-1{fill:#818181;fill-rule:evenodd}</style></defs><path d="M16.418 7.753h-1.466v7.48c0 .978-.803 1.771-1.794 1.771H3.845c-.99 0-1.794-.793-1.794-1.771v-7.48H.585a.583.583 0 0 1-.586-.579c0-.319.263-.579.586-.579h1.466V4.277h12.901v2.318h1.466c.324 0 .586.26.586.579 0 .32-.262.579-.586.579zm-2.639-2.318H3.224v9.798c0 .338.279.613.621.613h9.313a.617.617 0 0 0 .621-.613V5.435zm-2.15 9.346a.582.582 0 0 1-.586-.579V7.078c0-.32.262-.579.586-.579.324 0 .586.259.586.579v7.124c0 .32-.262.579-.586.579zm-3.127 0a.583.583 0 0 1-.587-.579V7.078c0-.32.263-.579.587-.579.324 0 .586.259.586.579v7.124c0 .32-.262.579-.586.579zm-3.128 0a.582.582 0 0 1-.586-.579V7.078c0-.32.262-.579.586-.579.324 0 .587.259.587.579v7.124c0 .32-.263.579-.587.579zM14.952 3.5H2.149a.582.582 0 0 1-.586-.579c0-.32.262-.579.586-.579h4.594V.895c0-.532.389-.893.928-.893h2.052c.539 0 .929.361.929.893v1.447h4.3c.324 0 .586.259.586.579 0 .32-.262.579-.586.579zM9.479 1.136H7.891v1.206h1.588V1.136z" class="cls-1"/></svg>

<svg xmlns="http://www.w3.org/2000/svg" xmlns:xlink="http://www.w3.org/1999/xlink" preserveAspectRatio="xMidYMid" width="17" height="17" viewBox="0 0 17 17">
  <defs>
    <style>
      .cls-1 {
        fill: #818181;
        fill-rule: evenodd;
      }
    </style>
  </defs>
  <path d="M16.418,7.753 L14.952,7.753 L14.952,15.233 C14.952,16.211 14.149,17.004 13.158,17.004 L3.845,17.004 C2.855,17.004 2.051,16.211 2.051,15.233 L2.051,7.753 L0.585,7.753 C0.262,7.753 -0.001,7.494 -0.001,7.174 C-0.001,6.855 0.262,6.595 0.585,6.595 L2.051,6.595 L2.051,4.277 L14.952,4.277 L14.952,6.595 L16.418,6.595 C16.742,6.595 17.004,6.855 17.004,7.174 C17.004,7.494 16.742,7.753 16.418,7.753 ZM13.779,5.435 L3.224,5.435 L3.224,15.233 C3.224,15.571 3.503,15.846 3.845,15.846 L13.158,15.846 C13.501,15.846 13.779,15.571 13.779,15.233 L13.779,5.435 ZM11.629,14.781 C11.305,14.781 11.043,14.522 11.043,14.202 L11.043,7.078 C11.043,6.758 11.305,6.499 11.629,6.499 C11.953,6.499 12.215,6.758 12.215,7.078 L12.215,14.202 C12.215,14.522 11.953,14.781 11.629,14.781 ZM8.502,14.781 C8.178,14.781 7.915,14.522 7.915,14.202 L7.915,7.078 C7.915,6.758 8.178,6.499 8.502,6.499 C8.826,6.499 9.088,6.758 9.088,7.078 L9.088,14.202 C9.088,14.522 8.826,14.781 8.502,14.781 ZM5.374,14.781 C5.050,14.781 4.788,14.522 4.788,14.202 L4.788,7.078 C4.788,6.758 5.050,6.499 5.374,6.499 C5.698,6.499 5.961,6.758 5.961,7.078 L5.961,14.202 C5.961,14.522 5.698,14.781 5.374,14.781 ZM14.952,3.500 L2.149,3.500 C1.825,3.500 1.563,3.241 1.563,2.921 C1.563,2.601 1.825,2.342 2.149,2.342 L6.743,2.342 L6.743,0.895 C6.743,0.363 7.132,0.002 7.671,0.002 L9.723,0.002 C10.262,0.002 10.652,0.363 10.652,0.895 L10.652,2.342 L14.952,2.342 C15.276,2.342 15.538,2.601 15.538,2.921 C15.538,3.241 15.276,3.500 14.952,3.500 ZM9.479,1.136 L7.891,1.136 L7.891,2.342 L9.479,2.342 L9.479,1.136 Z" class="cls-1"/>
</svg>
